X: 1
T: YPSILANTI -- HORNPIPE
B: Ryan's Mammoth Collection of Fiddle Tunes
R: hornpipe
M: 2/4
L: 1/16
Z: Contributed 20010917194343 by John Chambers jmchambers:rcn.net
K: Bb
vfe \
| dbgd cgec | BfdB AecA | BFGA Bcde | "0"=ef^fg ag=f"4"_e |
| dbgd cgec | BfdB AecA | Bbfd cBAc | B2d2B2 :|
|: vAB \
| cf"0"=ef gf"0"ef | dg^fg agfg | bag=f "0"=edc=B | c=Bc^c "0"=edc_B |
| cf=ef gfef | dg^fg agfg | bg"0"=ec =Bcde | f2a2f2 :|
